X:2613
T:Country dance
C:Franz Joseph Haydn
O:Austria
Z:Transcribed by Frank Nordberg - http://www.musicaviva.com
F:http://abc.musicaviva.com/tunes/haydn-franz-joseph/haydn-country-dance/haydn-country-dance-pno2.abc
V:1 Program 1 0 up %Piano
V:2 Program 1 0 merge down %Piano
V:3 Program 1 0 bass %Piano
M:2/4
L:1/8
Q:1/4=108
K:Eb
V:1
e3B|(3GAG EE|AF DB,|E/D/E/F/ EE|
V:2
x4|x4|x4|x4|
V:3
E,B,G,B,|E,B,G,B,|F,B,A,B,|E,B,G,B,|
%
V:1
e3B|(3GAG EE|AF DB,|E2E2:|
V:2
x4|x4|x4|x4:|
V:3
E,B,G,B,|E,B,G,B,|F,B,A,B,|E,2E,,2:|
%
V:1
|:g3f|edcB|ccdd|e/d/e/f/ ee|
V:2
|:e3d|cBAG|AAFF|G2GG|
V:3
|:E,E,E,E,|E,E,E,E,|E,,E,E,,E,|E,,E,E,,E,|
%
V:1
g3f|edcB|cafd|e2e2:|
V:2
e3d|cBAG|x4|x4:|
V:3
E,,E,E,,E,|E,,E,E,,E,|A,F,B,B,,|E,2E,,2:|
%
V:1
|:b3a|gfgf|gabc'|f4|
V:2
|:g3f|eded|efga|d4|
V:3
|:E,,E,E,,E,|E,,E,E,,E,|E,,E,E,,E,|B,4|
%
V:1
aaaf|gbee|fadd|e2e2:|
V:2
fffd|e z cc|c z FF|G2G2:|
V:3
B,,2B,2|E,2C2|A,F,B,B,,|E,2E,,2:|
W:
W:
W:  From Musica Viva - http://www.musicaviva.com
W:  the Internet center for free sheet music downloads.
